app/dist/common/images/wec-energy.svg

<svg height="18" width="18" xmlns="http://www.w3.org/2000/svg"><path d="m0 0h18v18h-18z" fill="#1188c9"/><g fill="#fff"><path d="m4 4h3v4.5l-3 3z"/><path d="m10.563 4h-3.126v3.96a1 1 0 0 1 -.292.708l-3.145 3.145v1.25l6.27-6.27a1 1 0 0 0 .293-.707zm3.437 10v-3h-4.5l-3 3z"/><path d="m14 7.438v3.125h-3.96a1 1 0 0 0 -.708.292l-3.145 3.145h-1.25l6.27-6.27a1 1 0 0 1 .707-.293h2.086z"/><path d="m14 4h-3v2.08a1 1 0 0 1 -.3.714l-6.7 6.581v.625h.625l6.581-6.7a1 1 0 0 1 .713-.3h2.081z"/></g></svg>

<!-- by TradingView --><svg width="18" height="18" xmlns="http://www.w3.org/2000/svg"><path fill="#1188C9" d="M0 0h18v18H0z"/><path d="M4 4h3v4.5l-3 3V4z" fill="#fff"/><path d="M10.563 4H7.437v3.96a1 1 0 01-.292.708L4 11.813v1.25l6.27-6.27a1 1 0 00.293-.707V4zM14 14v-3H9.5l-3 3H14z" fill="#fff"/><path d="M14 7.438v3.125h-3.96a1 1 0 00-.708.292L6.187 14h-1.25l6.27-6.27a1 1 0 01.707-.293H14z" fill="#fff"/><path d="M14 4h-3v2.08a1 1 0 01-.3.714L4 13.375V14h.625l6.581-6.7a1 1 0 01.713-.3H14V4z" fill="#fff"/></svg>
